images/footer/logo.svg

<svg width="55" height="88" viewBox="0 0 55 88" fill="none" xmlns="http://www.w3.org/2000/svg">
<path d="M38.9417 14.7593H35.8929C35.4771 14.7593 35.1307 15.1057 35.1307 15.5215V35.7546V35.8238C35.1307 40.0506 31.7354 43.4459 27.5086 43.4459C23.2819 43.4459 19.8866 40.0506 19.8866 35.8238V35.7546V15.5215C19.8866 15.1057 19.5401 14.7593 19.1244 14.7593H16.0756C15.6598 14.7593 15.3134 15.1057 15.3134 15.5215V35.8238C15.3134 42.4758 20.6488 47.8805 27.3008 48.0191H27.5779H27.8551C34.4378 47.8805 39.8425 42.4758 39.8425 35.8238V15.5215C39.7732 15.1057 39.4267 14.7593 38.9417 14.7593Z" fill="black"/>
<path d="M53.7701 0.277344H1.31651C0.762184 0.277344 0.346436 0.693092 0.346436 1.24742V41.9907V46.7718V87.0301C0.346436 87.5844 0.762184 88.0002 1.31651 88.0002H53.7701C54.3244 88.0002 54.7401 87.5844 54.7401 87.0301V46.7718V41.9907V1.24742C54.7401 0.693092 54.3244 0.277344 53.7701 0.277344ZM4.78108 5.68207V5.19703C4.78108 4.91986 4.98896 4.6427 5.33541 4.6427H5.82045H49.4047H49.8897C50.1669 4.6427 50.4441 4.85057 50.4441 5.19703V5.68207V44.901L28.3401 67.0049L27.9937 67.3514C27.7858 67.5592 27.4394 67.5592 27.2315 67.3514L26.885 67.0049L4.78108 44.901V5.68207ZM50.3055 82.5955V83.0805C50.3055 83.3577 50.0976 83.6348 49.7512 83.6348H49.2661H5.75116H5.26612C4.98896 83.6348 4.71179 83.4269 4.71179 83.0805V82.5955V51.1372L26.8157 73.2411C27.1622 73.5876 27.7858 73.5876 28.2016 73.2411L50.3055 51.1372V82.5955Z" fill="black"/>
</svg>

<svg width="55" height="88" fill="none" xmlns="http://www.w3.org/2000/svg"><path d="M38.942 14.76h-3.05a.769.769 0 00-.761.761v20.303a7.6 7.6 0 01-7.622 7.622 7.6 7.6 0 01-7.622-7.622V15.522a.769.769 0 00-.763-.763h-3.048a.769.769 0 00-.763.762v20.303c0 6.652 5.336 12.056 11.988 12.195h.554c6.583-.139 11.988-5.543 11.988-12.195V15.522a.901.901 0 00-.901-.763z" fill="#000"/><path d="M53.77.277H1.317a.947.947 0 00-.97.97v85.784c0 .553.415.97.97.97H53.77c.554 0 .97-.417.97-.97V1.246a.947.947 0 00-.97-.97zM4.781 5.682v-.485c0-.277.208-.554.554-.554H49.89c.277 0 .554.208.554.554v39.704L28.34 67.005l-.346.346a.544.544 0 01-.762 0l-.347-.346L4.781 44.9V5.682zm45.525 76.913v.486a.546.546 0 01-.555.554H5.266a.547.547 0 01-.554-.555V51.138l22.104 22.104c.346.347.97.347 1.386 0l22.104-22.104v31.459z" fill="#000"/></svg>
